icons/tik_tok.svg

<svg width="53" height="53" viewBox="0 0 53 53" fill="none" xmlns="http://www.w3.org/2000/svg">
<path d="M0 8.28125C0 3.70764 3.70764 0 8.28125 0H44.7188C49.2924 0 53 3.70764 53 8.28125V44.7188C53 49.2924 49.2924 53 44.7188 53H8.28125C3.70764 53 0 49.2924 0 44.7188V8.28125Z" fill="black"/>
<path d="M24.0129 23.6849V22.6533C23.6595 22.6061 23.3002 22.5765 22.9291 22.5765C18.5053 22.5707 14.9062 26.1728 14.9062 30.6062C14.9062 33.324 16.2611 35.7293 18.3345 37.1855C16.9974 35.7529 16.1786 33.8251 16.1786 31.7145C16.1786 27.346 19.6775 23.7851 24.0129 23.6849Z" fill="#25F4EE"/>
<path d="M24.2071 35.3815C26.1804 35.3815 27.7944 33.8074 27.8651 31.8501L27.871 14.3583H31.0636C30.9988 13.9987 30.9635 13.6273 30.9635 13.25H26.6045L26.5986 30.7418C26.528 32.6991 24.9139 34.2731 22.9406 34.2731C22.328 34.2731 21.7508 34.1198 21.2383 33.8486C21.898 34.7742 22.9819 35.3815 24.2071 35.3815Z" fill="#25F4EE"/>
<path d="M37.0311 20.2951V19.3224C35.8118 19.3224 34.6808 18.9627 33.7266 18.3378C34.5748 19.3106 35.7234 20.018 37.0311 20.2951Z" fill="#25F4EE"/>
<path d="M33.7269 18.3378C32.7961 17.2707 32.2366 15.8794 32.2366 14.3584H31.0703C31.3707 16.0209 32.3603 17.4476 33.7269 18.3378Z" fill="#FE2C55"/>
<path d="M22.9354 26.9333C20.9149 26.9333 19.2715 28.5781 19.2715 30.6002C19.2715 32.0093 20.0726 33.2355 21.2389 33.8486C20.803 33.2473 20.5438 32.5104 20.5438 31.7086C20.5438 29.6865 22.1873 28.0416 24.2077 28.0416C24.5847 28.0416 24.9499 28.1064 25.2915 28.2126V23.7557C24.9381 23.7085 24.5788 23.679 24.2077 23.679C24.1429 23.679 24.084 23.6849 24.0192 23.6849V27.1042C23.6717 26.9981 23.3123 26.9333 22.9354 26.9333Z" fill="#FE2C55"/>
<path d="M37.0304 20.295V23.6849C34.7684 23.6849 32.6714 22.9598 30.9631 21.7335V30.6062C30.9631 35.0336 27.3641 38.6417 22.9344 38.6417C21.2262 38.6417 19.6358 38.0993 18.334 37.1855C19.8007 38.7595 21.8918 39.75 24.2068 39.75C28.6305 39.75 32.2355 36.1479 32.2355 31.7145V22.8419C33.9437 24.0682 36.0407 24.7932 38.3027 24.7932V20.4307C37.8609 20.4307 37.4368 20.3835 37.0304 20.295Z" fill="#FE2C55"/>
<path d="M30.9638 30.6062V21.7335C32.6721 22.9598 34.769 23.6849 37.031 23.6849V20.2951C35.7233 20.0181 34.5747 19.3106 33.7265 18.3378C32.3598 17.4476 31.3761 16.0209 31.0639 14.3584H27.8713L27.8654 31.8501C27.7948 33.8074 26.1807 35.3815 24.2075 35.3815C22.9822 35.3815 21.9042 34.7743 21.2327 33.8546C20.0664 33.2356 19.2653 32.0153 19.2653 30.6062C19.2653 28.5841 20.9088 26.9392 22.9292 26.9392C23.3062 26.9392 23.6714 27.0041 24.013 27.1102V23.6908C19.6777 23.7852 16.1787 27.346 16.1787 31.7146C16.1787 33.8251 16.9975 35.7471 18.3346 37.1855C19.6364 38.0993 21.2268 38.6417 22.9351 38.6417C27.3588 38.6417 30.9638 35.0337 30.9638 30.6062Z" fill="white"/>
</svg>

<svg width="53" height="53" fill="none" xmlns="http://www.w3.org/2000/svg"><path d="M0 8.281A8.281 8.281 0 0 1 8.281 0H44.72A8.281 8.281 0 0 1 53 8.281V44.72A8.281 8.281 0 0 1 44.719 53H8.28A8.281 8.281 0 0 1 0 44.719V8.28Z" fill="#000"/><path d="M24.013 23.685v-1.032a8.15 8.15 0 0 0-1.084-.076c-4.424-.006-8.023 3.596-8.023 8.03a8.028 8.028 0 0 0 3.428 6.578 8 8 0 0 1-2.155-5.47c0-4.369 3.498-7.93 7.834-8.03Z" fill="#25F4EE"/><path d="M24.207 35.382a3.669 3.669 0 0 0 3.658-3.532l.006-17.492h3.193c-.065-.36-.1-.73-.1-1.108h-4.36L26.6 30.742a3.669 3.669 0 0 1-3.658 3.531c-.613 0-1.19-.153-1.703-.424a3.641 3.641 0 0 0 2.97 1.533ZM37.031 20.295v-.973a6 6 0 0 1-3.304-.984 6.06 6.06 0 0 0 3.304 1.957Z" fill="#25F4EE"/><path d="M33.727 18.338a6.03 6.03 0 0 1-1.49-3.98H31.07a6.047 6.047 0 0 0 2.657 3.98ZM22.935 26.933a3.67 3.67 0 0 0-3.663 3.667c0 1.41.8 2.636 1.967 3.249a3.63 3.63 0 0 1-.695-2.14 3.67 3.67 0 0 1 3.664-3.667c.377 0 .742.064 1.084.17v-4.456a8.15 8.15 0 0 0-1.084-.077c-.065 0-.124.006-.189.006v3.42a3.689 3.689 0 0 0-1.084-.172Z" fill="#FE2C55"/><path d="M37.03 20.295v3.39c-2.262 0-4.359-.725-6.067-1.951v8.872c0 4.428-3.599 8.036-8.029 8.036a7.994 7.994 0 0 1-4.6-1.457 8.014 8.014 0 0 0 5.873 2.565c4.424 0 8.029-3.602 8.029-8.035v-8.873a10.375 10.375 0 0 0 6.067 1.951v-4.362c-.442 0-.866-.047-1.273-.136Z" fill="#FE2C55"/><path d="M30.964 30.606v-8.873a10.375 10.375 0 0 0 6.067 1.952v-3.39a6.06 6.06 0 0 1-3.304-1.957 6.096 6.096 0 0 1-2.663-3.98H27.87l-.006 17.492a3.669 3.669 0 0 1-3.657 3.532 3.68 3.68 0 0 1-2.975-1.527 3.68 3.68 0 0 1-1.968-3.249 3.67 3.67 0 0 1 3.664-3.667c.377 0 .742.065 1.084.171v-3.42c-4.335.095-7.834 3.656-7.834 8.025a8.01 8.01 0 0 0 2.156 5.47 7.994 7.994 0 0 0 4.6 1.457c4.424 0 8.029-3.608 8.029-8.036Z" fill="#fff"/></svg>
